X:1
T:Title
%%score { ( 1 2 5 ) | ( 3 4 ) }
L:1/8
Q:1/4=106
M:4/4
K:Eb
V:1 treble nm="Grand Piano"
V:2 treble 
V:5 treble 
V:3 bass 
V:4 bass 
V:1
 z4 F2 z2 | [F,CF]2 D>F E>D C2 | E2 C>E =B,->[B,C] z z/ C/ | D>E F>A [EG]4 | G2 E>G F2 z2 | %5
 [F,CF]2 D>F E>D C2 | E2 C>E D>C z z/ C/ | D>E F>A [EG]4 | F2 F>G A>G A>F | E>D E>F G4 | D2 z2 z4 | %11
 G>F E>D C4 | c2 G>c e2 c2 | B2 F>B d2 B2 | A2 E>A c2 A2 | z4 G4 | G2 EG A2 F2 | F2 DF G2 E2 | %18
 E2 CE F2 D2 | D2 .C2 C4 |] %20
V:2
 G2 E>G =B,4 | x8 | z4 D2 =B,2 | x8 | z4 =B,4 | x8 | z4 =B,2 B,2 | x8 | x8 | x8 | [F,=B,]8 | %11
 C2 z2 z4 | E4 z4 | x8 | x8 | G2 G>F z2 F,2 | x8 | x8 | x8 | =B,3 B,- B,4 |] %20
V:3
 [C,E,C]4 z z/ E/ D2 | =A,,2 [=B,,F,G,]2 [C,E,G,]4 | [A,,C,A,]4 [G,,F,]4 | [D,F,G,]4 [C,G,]4 | %4
 [C,E,C]4 z z/ E/ D2 | =A,,2 [=B,,F,G,]2 [C,E,G,]4 | [A,,C,A,]4 [G,,F,]4 | [D,F,G,]4 [C,G,]4 | %8
 [F,A,C]8 | C4- [G,C-]2 [F,C]2 | z2[K:treble] D>E F>=E F>A | [=A,,F,]2 [=B,,F,G,]2 [C,E,G,]4 | %12
 z4 G4 | D4 F4 | C4 E4 | D,6 z2 | C4- [F,C]4 | [D,G,=B,]4 [C,E,C]4 | A,4 C4 | [G,,F,]4 [C,E,G,]4 |] %20
V:4
 z4 [G,,D,]4 | x8 | x8 | x8 | z4 [G,,D,]4 | x8 | x8 | x8 | x8 | [C,G,]4 z4 | G,,8[K:treble] | x8 | %12
 [C,G,]8 | [D,F,]8 | [E,A,]8 | G,,8 | [C,E,]4 z4 | x8 | [A,,C,]8 | x8 |] %20
V:5
 x8 | x8 | x8 | x8 | x8 | x8 | x8 | x8 | x8 | x8 | x8 | x8 | x8 | x8 | x8 | =B,8 | x8 | x8 | x8 | %19
 x8 |] %20

